public/assets/icons/npc_tier_2.svg

<?xml version="1.0" standalone="no"?>
<!DOCTYPE svg PUBLIC "-//W3C//DTD SVG 1.1//EN" "http://www.w3.org/Graphics/SVG/1.1/DTD/svg11.dtd" >
<svg xmlns="http://www.w3.org/2000/svg" xmlns:xlink="http://www.w3.org/1999/xlink" version="1.1" viewBox="0 -64 1024 1024" width="512" height="512">
  <g transform="matrix(1 0 0 -1 0 960)">
   <path fill="currentColor"
d="M512 823q-102 0 -153.5 -34l-51.5 -34v-211l205 128l205 -128v211l-51.5 34t-153.5 34zM512 591l-205 -128v-73l205 128l205 -128v73zM512 438l-205 -128v-67l205 -205l205 205v67z" />
  </g>

</svg>

<?xml version="1.0" encoding="UTF-8" standalone="no"?>
<svg
   version="1.1"
   viewBox="0 -64 1024 1024"
   width="512"
   height="512"
   id="svg1333"
   sodipodi:docname="npc_tier_2.svg"
   inkscape:version="1.2.2 (732a01da63, 2022-12-09)"
   xmlns:inkscape="http://www.inkscape.org/namespaces/inkscape"
   xmlns:sodipodi="http://sodipodi.sourceforge.net/DTD/sodipodi-0.dtd"
   xmlns="http://www.w3.org/2000/svg"
   xmlns:svg="http://www.w3.org/2000/svg">
  <defs
     id="defs1337" />
  <sodipodi:namedview
     id="namedview1335"
     pagecolor="#ffffff"
     bordercolor="#000000"
     borderopacity="0.25"
     inkscape:showpageshadow="2"
     inkscape:pageopacity="0.0"
     inkscape:pagecheckerboard="0"
     inkscape:deskcolor="#d1d1d1"
     showgrid="false"
     inkscape:zoom="1.6191406"
     inkscape:cx="236.23643"
     inkscape:cy="256.30881"
     inkscape:window-width="1920"
     inkscape:window-height="1009"
     inkscape:window-x="-8"
     inkscape:window-y="-8"
     inkscape:window-maximized="1"
     inkscape:current-layer="svg1333" />
  <g
     transform="matrix(1,0,0,-1,0,878.5)"
     id="g1331">
    <path
       fill="currentColor"
       d="M 512,823 Q 410,823 358.5,789 L 307,755 V 544 L 512,672 717,544 v 211 l -51.5,34 q 0,0 -153.5,34 z M 512,591 307,463 V 390 L 512,518 717,390 v 73 z M 512,438 307,310 V 243 L 512,38 717,243 v 67 z"
       id="path1329" />
  </g>
</svg>
